assets/Sewing needle/Flat/sewing_needle_flat.svg

<svg width="32" height="32" viewBox="0 0 32 32" fill="none" xmlns="http://www.w3.org/2000/svg">
<path d="M26.5 2C24.567 2 23 3.567 23 5.5C23 5.99807 23.104 6.47184 23.2916 6.90077L2.20924 28.738C1.9286 29.0288 1.9286 29.5 2.21926 29.7807C2.50992 30.0714 2.97096 30.0714 3.27164 29.7907L25.002 8.66415C25.4561 8.87952 25.964 9 26.5 9C28.433 9 30 7.433 30 5.5C30 3.567 28.433 2 26.5 2ZM25 5.5C25 4.67157 25.6716 4 26.5 4C27.3284 4 28 4.67157 28 5.5C28 6.32843 27.3284 7 26.5 7C25.6716 7 25 6.32843 25 5.5Z" fill="#9B9B9B"/>
<path d="M15.945 8.03264C16.8413 5.82252 19.0792 4.46426 21.7397 4.5007C23.94 4.53084 25.9098 5.43738 27.0266 6.90497C27.535 6.71434 27.9123 6.2557 27.9866 5.7011C26.5176 3.98434 24.1681 3.03383 21.7603 3.00085C18.5808 2.95729 15.7187 4.59909 14.555 7.46896C14.3993 7.85281 14.5843 8.29017 14.9682 8.44583C15.352 8.60149 15.7894 8.4165 15.945 8.03264Z" fill="#5092FF"/>
<path d="M29.1664 7.76735C28.8185 8.17604 28.3784 8.50375 27.8781 8.71825C27.9528 9.04733 27.995 9.39491 28.0001 9.76057C28.0444 13.1692 25.1755 16.0008 21.75 16.0008H8.75C6.98044 16.0008 5.52636 16.8971 4.53681 18.169C3.55321 19.4332 3 21.0972 3 22.7508C3 23.165 3.33579 23.5008 3.75 23.5008C4.16421 23.5008 4.5 23.165 4.5 22.7508C4.5 21.4144 4.95179 20.0784 5.72069 19.0901C6.48364 18.1095 7.52956 17.5008 8.75 17.5008H21.75C25.9845 17.5008 29.5556 14.0124 29.4999 9.74104C29.4911 9.09461 29.3913 8.48037 29.2113 7.90532C29.1969 7.85903 29.1819 7.81304 29.1664 7.76735Z" fill="#5092FF"/>
</svg>

<svg xmlns="http://www.w3.org/2000/svg" width="32" height="32" fill="none"><path fill="#9B9B9B" d="M26.5 2a3.5 3.5 0 0 0-3.208 4.9L2.209 28.739c-.28.29-.28.762.01 1.043.29.29.752.29 1.053.01l21.73-21.127A3.5 3.5 0 1 0 26.5 2ZM25 5.5a1.5 1.5 0 1 1 3 0 1.5 1.5 0 0 1-3 0Z"/><path fill="#5092FF" d="M15.945 8.033c.896-2.21 3.134-3.569 5.795-3.532 2.2.03 4.17.936 5.287 2.404.508-.19.885-.65.96-1.204-1.47-1.717-3.819-2.667-6.227-2.7-3.18-.044-6.041 1.598-7.205 4.468a.75.75 0 1 0 1.39.564ZM29.166 7.767a3.51 3.51 0 0 1-1.288.951c.075.33.117.677.122 1.043.044 3.408-2.825 6.24-6.25 6.24h-13c-1.77 0-3.224.896-4.213 2.168C3.553 19.433 3 21.097 3 22.751a.75.75 0 0 0 1.5 0c0-1.337.452-2.673 1.22-3.66.764-.982 1.81-1.59 3.03-1.59h13c4.235 0 7.806-3.489 7.75-7.76a6.42 6.42 0 0 0-.334-1.974Z"/></svg>
